public/images/optimism.svg

<svg fill="none" height="87" viewBox="0 0 87 87" width="87" xmlns="http://www.w3.org/2000/svg"><rect fill="#ff2e2e" height="87" rx="12" width="87"/><g fill="#fff"><path d="m27.8964 57.498c-3.088 0-5.6165-.7253-7.5854-2.1761-1.9482-1.4715-2.9223-3.5855-2.9223-6.3005 0-.5803.0621-1.2643.1865-2.0933.3316-1.8653.8083-4.1036 1.4301-6.7358 1.7616-7.1295 6.3212-10.6943 13.658-10.6943 1.9896 0 3.7927.3317 5.3679 1.0156 1.5751.6425 2.8186 1.6373 3.7305 2.9637.9119 1.3057 1.3679 2.8601 1.3679 4.6632 0 .5389-.0622 1.2228-.1865 2.0518-.3938 2.3006-.8498 4.5596-1.4093 6.7358-.912 3.544-2.4664 6.2176-4.7047 7.9793-2.2176 1.7409-5.2021 2.5906-8.9327 2.5906zm.5596-5.5958c1.4508 0 2.6736-.4352 3.6892-1.285 1.0362-.8497 1.7823-2.1554 2.2176-3.9378.601-2.4456 1.057-4.5596 1.3678-6.3834.1037-.5389.1658-1.0985.1658-1.6788 0-2.3627-1.2228-3.544-3.6891-3.544-1.4508 0-2.6943.4352-3.7305 1.2849-1.0156.8498-1.741 2.1555-2.1762 3.9379-.4767 1.7409-.9327 3.8549-1.4093 6.3834-.1037.5181-.1658 1.057-.1658 1.6373-.0208 2.4041 1.2435 3.5855 3.7305 3.5855z"/><path d="m44.934 57.1238c-.2902 0-.4974-.0829-.6632-.2694-.1244-.2073-.1658-.4353-.1244-.7047l5.3679-25.285c.0414-.2901.1865-.5181.4352-.7046.228-.1866.4767-.2695.7461-.2695h10.342c2.8808 0 5.1813.6011 6.9223 1.7824 1.7616 1.2021 2.6528 2.9223 2.6528 5.1814 0 .6424-.0829 1.3264-.228 2.031-.6424 2.9845-1.9481 5.1814-3.9378 6.6114-1.9482 1.4301-4.6217 2.1348-8.0207 2.1348h-5.2435l-1.7824 8.5181c-.0622.2901-.1865.5181-.4352.7047-.228.1865-.4767.2694-.7462.2694zm13.7616-14.8601c1.0985 0 2.0311-.2902 2.8394-.8912.829-.601 1.3679-1.4508 1.6373-2.57.0829-.4352.1244-.829.1244-1.1606 0-.7461-.228-1.3264-.6632-1.7202-.4353-.4145-1.2021-.6217-2.2591-.6217h-4.6632l-1.4715 6.9637z"/></g></svg>

<svg width="87" height="87" viewBox="0 0 87 87" fill="none" xmlns="http://www.w3.org/2000/svg">
<rect width="87" height="87" rx="12" fill="#FF2E2E"/>
<path d="M27.8964 57.498C24.8084 57.498 22.2799 56.7727 20.311 55.3219C18.3628 53.8504 17.3887 51.7364 17.3887 49.0214C17.3887 48.4411 17.4508 47.7571 17.5752 46.9281C17.9068 45.0628 18.3835 42.8245 19.0053 40.1923C20.7669 33.0628 25.3265 29.498 32.6633 29.498C34.6529 29.498 36.456 29.8297 38.0312 30.5136C39.6063 31.1561 40.8498 32.1509 41.7617 33.4773C42.6736 34.783 43.1296 36.3374 43.1296 38.1405C43.1296 38.6794 43.0674 39.3633 42.9431 40.1923C42.5493 42.4929 42.0933 44.7519 41.5338 46.9281C40.6218 50.4721 39.0674 53.1457 36.8291 54.9074C34.6115 56.6483 31.627 57.498 27.8964 57.498ZM28.456 51.9022C29.9068 51.9022 31.1296 51.467 32.1452 50.6172C33.1814 49.7675 33.9275 48.4618 34.3628 46.6794C34.9638 44.2338 35.4198 42.1198 35.7306 40.296C35.8343 39.7571 35.8964 39.1975 35.8964 38.6172C35.8964 36.2545 34.6736 35.0732 32.2073 35.0732C30.7565 35.0732 29.513 35.5084 28.4768 36.3581C27.4612 37.2079 26.7358 38.5136 26.3006 40.296C25.8239 42.0369 25.3679 44.1509 24.8913 46.6794C24.7876 47.1975 24.7255 47.7364 24.7255 48.3167C24.7047 50.7208 25.969 51.9022 28.456 51.9022Z" fill="white"/>
<path d="M44.934 57.1238C44.6438 57.1238 44.4366 57.0409 44.2708 56.8544C44.1464 56.6471 44.105 56.4191 44.1464 56.1497L49.5143 30.8647C49.5557 30.5746 49.7008 30.3466 49.9495 30.1601C50.1775 29.9735 50.4262 29.8906 50.6956 29.8906H61.0376C63.9184 29.8906 66.2189 30.4917 67.9599 31.673C69.7215 32.8751 70.6127 34.5953 70.6127 36.8544C70.6127 37.4968 70.5298 38.1808 70.3847 38.8854C69.7423 41.8699 68.4366 44.0668 66.4469 45.4968C64.4987 46.9269 61.8252 47.6316 58.4262 47.6316H53.1827L51.4003 56.1497C51.3381 56.4398 51.2138 56.6678 50.9651 56.8544C50.7371 57.0409 50.4884 57.1238 50.2189 57.1238H44.934ZM58.6956 42.2637C59.7941 42.2637 60.7267 41.9735 61.535 41.3725C62.364 40.7715 62.9029 39.9217 63.1723 38.8025C63.2552 38.3673 63.2967 37.9735 63.2967 37.6419C63.2967 36.8958 63.0687 36.3155 62.6335 35.9217C62.1982 35.5072 61.4314 35.3 60.3744 35.3H55.7112L54.2397 42.2637H58.6956Z" fill="white"/>
</svg>
